X:3
T:Better With Age
C:Rick Barrows and Bernie Waugh
S:Bernie Waugh
R:Jig
M:6/8
L:1/8
K:E minor
"Em"~EDE dee|B^cc dee|"C"BAG EDC|"Bm"B,DF AGF|
"Em"~EDE dee|B^cc dee|"C"BAG "Em"EDC|"D"A,B,C DEF|
"Em"~EDE dee|B^cc dee|"C"BAG EDC|"Bm"B,DF AGF|
"C"~EDE dee|geg fdd|"Bm"ede "D"fdA|"Em"BAG E2(3D/E/F/||
"G"G>GG EDF|"Am"GAB "Bm"cBB|"C"cgg agc|"Bm"Bff gfB|
"G"AGG EDF|"Am"GAB "Bm"cBB|"C"cgg "Bm"Bff|"Am"[A3e3] AGF|
"G"G>GG EDF|"Am"GAB "Bm"cBB|"C"cgg agc|"Bm"Bff gfB|
"C"cgg aga|"D"bag fdB|"F"Aee ~=fee|~=fee dBA|]

